X: '1'
T:Pelletée de neige
C:Laurence Beaudry
Z:robin.beech@mcgill.ca
N:©Laurence Beaudry, Reproduced with permission
R:jig
M:6/8
L:1/8
K:Gmix
d2c |: B2G G^FG | B,DG B2G | FAc cBc | edc def |
BAG G^FG | B,DG B2d | FAc cBc |1 ec=f d2c   :|2 egf d2e |:
K:G
fdA FAd | fdb afd | cEE CEE | cGc ede |
fdA FAd | fab c'ag | ecc GEG |1 CEG ced :|2 ecg d2c ||
 B2G G^FG | B,DG B2G | FAc cBc | edc def |
BAG G^FG | B,DG B2d | FAc cBc |1 ec=f d2c   :|2 egf d3 |]
